svg/mono/jcb.svg

<svg xmlns="http://www.w3.org/2000/svg" width="750" height="471">
  <path fill="#393939" fill-rule="evenodd" d="M0,40.0047706 C0,17.9107459 17.9143492,0 39.9919369,0 L710.008063,0 C732.095,0 750,17.9064659 750,40.0047706 L750,430.995229 C750,453.089254 732.085651,471 710.008063,471 L39.9919369,471 C17.905,471 0,453.093534 0,430.995229 L0,40.0047706 Z M179.180777,258.9493 C179.180777,258.9493 178.907518,169.4472 179.211117,128.235716 C183.265341,104.146715 207.924334,86.116688 232.075965,88.316766 L299.38648,88.316766 C299.30758,170.25863 299.31818,252.20319 299.18334,334.14337 C298.43699,358.38642 277.29958,379.61121 253.003425,380.21711 C228.40661,380.28921 203.807276,380.22761 179.209488,380.24811 L179.209488,277.88628 C197.474344,281.23379 215.835592,284.83865 234.522992,283.74864 C252.446297,282.81727 274.06052,280.0734 284.32472,263.30638 C291.92165,250.92113 288.51689,236.14351 289.14772,222.44568 L288.91491,187.41639 C275.06259,187.49379 261.21027,187.57128 247.357943,187.64873 C247.157579,208.02663 247.769436,228.44885 247.032044,248.79753 C245.435076,262.33083 230.953477,269.28139 218.515922,268.03135 C204.131982,267.89913 191.328619,262.52932 179.180777,258.9493 L179.180777,258.9493 Z M314.85062,202.5565 C315.00426,179.51516 314.53417,156.450657 315.10273,133.424713 C316.78683,111.481636 335.22673,93.012434 356.90548,90.333146 C378.70585,89.615175 400.57748,90.220002 422.40575,90.020305 L435.10719,90.020305 C435.05079,172.35533 435.22004,254.696 435.02249,337.02748 C433.44919,362.60532 408.77299,384.0807 383.19918,381.6512 L314.85067,381.6512 L314.85067,269.60927 C332.67126,283.68432 356.7449,285.7996 378.70789,285.51658 C393.12924,285.1422 407.50576,282.9991 421.41096,279.15976 C421.31025,272.38985 421.20954,265.61995 421.10883,258.85005 C401.46992,268.30354 377.12648,274.98445 356.63751,264.22607 C340.36137,254.91013 338.44965,231.4562 347.1502,216.36344 C357.89665,200.70703 379.60428,200.24136 396.50374,203.55169 C404.79644,204.29021 415.93543,211.7095 421.41096,211.54217 L421.41096,192.9457 C393.0655,185.77927 362.69355,183.46031 334.29622,191.57504 C327.23573,193.98904 320.32333,197.40432 314.85067,202.5565 L314.85062,202.5565 Z M448.91013,281.1805 L448.91013,380.1351 C474.31914,380.0745 499.74248,380.25619 525.14256,380.0444 C549.29943,377.87704 570.27681,355.81216 569.02638,331.20768 L569.02638,88.307817 C543.96093,88.399997 518.88509,88.122501 493.82621,88.448229 C468.62375,89.969747 447.20069,113.504962 448.91013,138.849483 L448.91013,187.62012 C474.13749,187.73356 499.38192,187.39147 524.59844,187.79432 C537.84972,188.11963 551.98447,198.49885 549.58236,213.04189 C548.57506,224.17039 537.98799,231.47083 527.58522,232.68265 C540.58507,233.71993 555.75271,242.11147 555.49636,256.83113 C555.83744,272.70542 538.68577,281.72003 524.59909,281.18048 L448.91013,281.18048 L448.91013,281.1805 Z M472.96875,203.258883 L472.96875,227.044279 L498.941512,227.044279 C498.941512,227.044279 511.111741,227.008725 511.111741,215.133804 C511.111741,203.258883 498.941512,203.258883 498.941512,203.258883 L472.96875,203.258883 L472.96875,203.258883 Z M500.749893,241.01374 L472.96875,241.01374 L472.96875,266.568656 L500.749893,266.568656 C500.829565,266.568656 514.445848,267.361012 514.445848,253.791199 C514.445848,240.221386 500.749893,241.01374 500.749893,241.01374 L500.749893,241.01374 Z"/>
</svg>

<svg xmlns="http://www.w3.org/2000/svg" width="750" height="471"><path fill="#393939" fill-rule="evenodd" d="M0 40.005C0 17.91 17.914 0 39.992 0h670.016C732.095 0 750 17.906 750 40.005v390.99C750 453.09 732.086 471 710.008 471H39.992C17.905 471 0 453.094 0 430.995V40.005zm179.18 218.944s-.272-89.502.031-130.713c4.054-24.09 28.713-42.12 52.865-39.92h67.31c-.078 81.943-.068 163.887-.203 245.827-.746 24.243-21.883 45.468-46.18 46.074-24.596.072-49.196.01-73.794.031V277.886c18.265 3.348 36.627 6.953 55.314 5.863 17.923-.932 39.538-3.676 49.802-20.443 7.597-12.385 4.192-27.162 4.823-40.86l-.233-35.03-41.557.233c-.2 20.378.411 40.8-.326 61.149-1.597 13.533-16.079 20.483-28.516 19.233-14.384-.132-27.187-5.502-39.335-9.082zm135.67-56.393c.154-23.04-.316-46.105.253-69.131 1.684-21.943 20.124-40.413 41.802-43.092 21.8-.718 43.672-.113 65.5-.313h12.702c-.056 82.335.113 164.676-.085 247.007-1.573 25.578-26.249 47.054-51.823 44.624h-68.348V269.61c17.82 14.075 41.894 16.19 63.857 15.908a178.015 178.015 0 0 0 42.703-6.357l-.302-20.31c-19.64 9.454-43.983 16.134-64.471 5.376-16.277-9.316-18.188-32.77-9.488-47.863 10.747-15.656 32.454-16.122 49.354-12.811 8.292.738 19.431 8.157 24.907 7.99v-18.596c-28.346-7.167-58.717-9.486-87.115-1.371-7.06 2.414-13.973 5.83-19.445 10.982zm134.06 78.624v98.955c25.41-.06 50.832.121 76.233-.09 24.156-2.168 45.134-24.233 43.883-48.837v-242.9c-25.065.092-50.14-.185-75.2.14-25.202 1.522-46.625 25.057-44.916 50.401v48.771c25.227.114 50.472-.229 75.688.174 13.252.326 27.386 10.705 24.984 25.248-1.007 11.128-11.594 18.429-21.997 19.64 13 1.038 28.168 9.43 27.911 24.15.341 15.873-16.81 24.888-30.897 24.348H448.91zm24.059-77.921v23.785h25.973s12.17-.035 12.17-11.91-12.17-11.875-12.17-11.875h-25.973zm27.78 37.755h-27.78v25.555h27.78c.08 0 13.697.792 13.697-12.778s-13.696-12.777-13.696-12.777z"/></svg>
